X:6901
T:Easter Hymn
T:Jesus Christ Is Risen Today
R:March
C:Trad. Lyra Davidica 1708
O:England after Bohemia
Z:Paul Hardy's Possible Tunebook 2022 (see www.paulhardy.net). Creative Commons cc by-nc-sa licenced.
M:4/4
L:1/4
Q:1/4=110
K:C
"C"C E G C|"F"F A A G|"C"E/F/G/C/ "D"F "C"E/F/|"G"E D "C"C2|"F"F G A "C"G|"D"F "G"E "C"E D|"C"E/F/G/C/ "D"F "C"E/F/|"G"E D "C"C2|
"G"B c d G|"C"c d e2|"G"B/c/d/G/ "C"c B/c/|"G"B A G2|G/A/ B/G/ "C"c E|"F"F A A G|"C"c/B/c/G/ "F"A/B/ c/d/|"G"c B "C"c2|]
W:Jesus Christ is risen today, Alleluia; Our triumphant holy day, Alleluia.
W:Who did once upon the cross, Alleluia; Suffer to redeem our loss, Alleluia!

